icon-themes/sifr_svg/cmd/sc_alignmiddle.svg

<svg viewBox="0 0 16 16" xmlns="http://www.w3.org/2000/svg"><path d="m1 9h14v-2h-14zm2 6h2v-5h-2zm0-9h2v-5h-2zm4 7h2v-3h-2zm0-7h2v-3h-2zm4 8h2v-4h-2zm0-8h2v-4h-2z" fill="#555753"/></svg>

<svg xmlns="http://www.w3.org/2000/svg" viewBox="0 0 16 16">
  <path
     style="fill:#555753"
     d="M 1,9 H 15 V 7 H 1 Z m 2,6 H 5 V 10 H 3 Z M 3,6 H 5 V 1 H 3 Z m 4,7 H 9 V 10 H 7 Z M 7,6 H 9 V 3 H 7 Z m 4,8 h 2 v -4 h -2 z m 0,-8 h 2 V 2 h -2 z"
     />
</svg>
